web/packages/design/src/ResourceIcon/assets/azure.svg

<svg width="72" height="72" viewBox="0 0 72 72" fill="none" xmlns="http://www.w3.org/2000/svg">
<path d="M24.0028 2.05795H45.3083L23.1911 67.5888C22.9638 68.2622 22.531 68.8473 21.9537 69.2618C21.3764 69.6763 20.6837 69.8994 19.973 69.8995H3.39202C2.85354 69.8996 2.32278 69.7714 1.84366 69.5257C1.36453 69.2799 0.950814 68.9236 0.636725 68.4862C0.322635 68.0488 0.117204 67.5429 0.0374279 67.0104C-0.0423487 66.4778 0.00582197 65.9339 0.177954 65.4237L20.7838 4.36867C21.0111 3.69501 21.4439 3.10961 22.0214 2.69493C22.5988 2.28024 23.2919 2.05799 24.0028 2.05795Z" fill="url(#paint0_linear_6709_29491)"/>
<path d="M54.9621 46.0117H21.1767C20.8626 46.0114 20.5557 46.1056 20.2959 46.2822C20.0362 46.4588 19.8356 46.7095 19.7204 47.0017C19.6051 47.2939 19.5806 47.614 19.6499 47.9204C19.7192 48.2268 19.8791 48.5051 20.1089 48.7193L41.8186 68.9823C42.4507 69.5719 43.2829 69.8998 44.1473 69.8996H63.2779L54.9621 46.0117Z" fill="#0078D4"/>
<path d="M24.0024 2.05813C23.2837 2.05537 22.5829 2.28249 22.0025 2.70631C21.422 3.13013 20.9923 3.72845 20.776 4.41386L0.202893 65.3682C0.0191804 65.8803 -0.0384958 66.4291 0.0347438 66.9682C0.107983 67.5073 0.309984 68.0208 0.623658 68.4653C0.937332 68.9098 1.35345 69.2722 1.83681 69.5219C2.32018 69.7716 2.85656 69.9012 3.4006 69.8997H20.4095C21.043 69.7865 21.635 69.5072 22.1253 69.0903C22.6155 68.6734 22.9862 68.1339 23.1997 67.5268L27.3024 55.4356L41.9571 69.1044C42.5713 69.6123 43.3416 69.8932 44.1386 69.8997H63.198L54.8388 46.0118L30.4706 46.0176L45.3848 2.05813H24.0024Z" fill="url(#paint1_linear_6709_29491)"/>
<path d="M51.2156 4.36556C50.9887 3.69299 50.5565 3.10856 49.9799 2.6946C49.4033 2.28064 48.7113 2.05802 48.0015 2.05811H24.2568C24.9666 2.05815 25.6585 2.28081 26.2351 2.69475C26.8117 3.10869 27.2439 3.69306 27.4709 4.36556L48.0776 65.423C48.2499 65.9334 48.2981 66.4774 48.2184 67.0101C48.1387 67.5427 47.9333 68.0488 47.6192 68.4863C47.3052 68.9239 46.8914 69.2804 46.4122 69.5263C45.933 69.7722 45.4021 69.9005 44.8635 69.9005H68.609C69.1476 69.9003 69.6783 69.772 70.1574 69.526C70.6365 69.28 71.0502 68.9235 71.3642 68.486C71.6782 68.0485 71.8835 67.5425 71.9631 67.0099C72.0428 66.4772 71.9945 65.9333 71.8223 65.423L51.2156 4.36556Z" fill="url(#paint2_linear_6709_29491)"/>
<defs>
<linearGradient id="paint0_linear_6709_29491" x1="31.768" y1="7.08525" x2="9.64178" y2="72.4516" gradientUnits="userSpaceOnUse">
<stop stop-color="#114A8B"/>
<stop offset="1" stop-color="#0669BC"/>
</linearGradient>
<linearGradient id="paint1_linear_6709_29491" x1="38.6793" y1="37.5479" x2="33.5611" y2="39.2785" gradientUnits="userSpaceOnUse">
<stop stop-opacity="0.3"/>
<stop offset="0.071" stop-opacity="0.2"/>
<stop offset="0.321" stop-opacity="0.1"/>
<stop offset="0.623" stop-opacity="0.05"/>
<stop offset="1" stop-opacity="0"/>
</linearGradient>
<linearGradient id="paint2_linear_6709_29491" x1="35.8653" y1="5.17889" x2="60.1533" y2="69.8866" gradientUnits="userSpaceOnUse">
<stop stop-color="#3CCBF4"/>
<stop offset="1" stop-color="#2892DF"/>
</linearGradient>
</defs>
</svg>

<svg xmlns="http://www.w3.org/2000/svg" width="72" height="72" fill="none" viewBox="0 0 72 72"><path fill="url(#paint0_linear_6709_29491)" d="M24.003 2.058h21.305l-22.117 65.53a3.4 3.4 0 0 1-3.218 2.312H3.392a3.392 3.392 0 0 1-3.214-4.476L20.784 4.369a3.4 3.4 0 0 1 3.219-2.311"/><path fill="#0078d4" d="M54.962 46.012H21.177a1.564 1.564 0 0 0-1.068 2.707l21.71 20.263c.632.59 1.464.918 2.328.918h19.13z"/><path fill="url(#paint1_linear_6709_29491)" d="M24.002 2.058a3.37 3.37 0 0 0-3.226 2.356L.203 65.368A3.388 3.388 0 0 0 3.4 69.9h17.01a3.64 3.64 0 0 0 2.79-2.373l4.102-12.091 14.655 13.668a3.47 3.47 0 0 0 2.182.796h19.059l-8.36-23.888-24.367.006 14.914-43.96z"/><path fill="url(#paint2_linear_6709_29491)" d="M51.216 4.366A3.39 3.39 0 0 0 48 2.058H24.258a3.39 3.39 0 0 1 3.214 2.308l20.607 61.057a3.392 3.392 0 0 1-3.215 4.477H68.61a3.392 3.392 0 0 0 3.213-4.477z"/><defs><linearGradient id="paint0_linear_6709_29491" x1="31.768" x2="9.642" y1="7.085" y2="72.452" gradientUnits="userSpaceOnUse"><stop stop-color="#114a8b"/><stop offset="1" stop-color="#0669bc"/></linearGradient><linearGradient id="paint1_linear_6709_29491" x1="38.679" x2="33.561" y1="37.548" y2="39.279" gradientUnits="userSpaceOnUse"><stop stop-opacity=".3"/><stop offset=".071" stop-opacity=".2"/><stop offset=".321" stop-opacity=".1"/><stop offset=".623" stop-opacity=".05"/><stop offset="1" stop-opacity="0"/></linearGradient><linearGradient id="paint2_linear_6709_29491" x1="35.865" x2="60.153" y1="5.179" y2="69.887" gradientUnits="userSpaceOnUse"><stop stop-color="#3ccbf4"/><stop offset="1" stop-color="#2892df"/></linearGradient></defs></svg>
